X: 42
T:The Trouper
% Nottingham Music Database
S:Mick Peat
M:4/4
L:1/4
K:G
B,C ^C|"G"DB B^A/2B/2|BG D^D|"A"EB B^A/2B/2|B2 E=F|"D"FB BA/2B/2|
BA2^A|"G"BG "Am"E_E|"D"DB, C^C|"G"DB B^A/2B/2|BG D^D|"A"EB B^A/2B/2|
BG E=F|"D"FB BA/2B/2|dA2B|"G"G4|Gd B_B|"Am"AA _AG|"D"Fe dc|
"G"Bf fe/2f/2|fd B_B|"Am"A3/2A/2 _AG|"D"Fe dc|"G"B4|"E"Bd B_B|"Am"AA _AG|
"D"Fe dc|"G"Bf fe/2f/2|"E"f2 d2|"Am"Ge cA|"D"A/2^A/2B/2dB/2A|"G  C"G4|"G"Gzzz\
:|%Yaps leaves out all the guitar chords here.??<end>
<start>
